src/assets/img/reviews_equipo/bodasNetSVG.svg

<?xml version="1.0" encoding="UTF-8"?>
<svg width="180px" height="33px" viewBox="0 0 180 33" version="1.1" xmlns="http://www.w3.org/2000/svg" xmlns:xlink="http://www.w3.org/1999/xlink">
    <!-- Generator: Sketch 48.1 (47250) - http://www.bohemiancoding.com/sketch -->
    <title>gen_logoHeader</title>
    <desc>Created with Sketch.</desc>
    <defs>
        <polygon id="path-1" points="1.89272524e-15 32.6799856 1.89272524e-15 0 37.2962594 0 37.2962594 32.6799856"></polygon>
    </defs>
    <g id="BRAND-HEADER" stroke="none" stroke-width="1" fill="none" fill-rule="evenodd">
        <g id="gen_logoHeader">
            <g id="Page-1">
                <g id="Group-3">
                    <mask id="mask-2" fill="white">
                        <use xlink:href="#path-1"></use>
                    </mask>
                    <g id="Clip-2"></g>
                    <path d="M34.0606686,6.06229107 C34.0606686,12.6836455 26.8521095,25.4309654 22.9976715,30.3949712 C21.4051643,27.7683718 18.2751354,25.1474784 14.9666628,22.3771902 C9.67637464,17.947219 4.20634582,13.3668156 3.81859366,7.98912104 C3.68009222,6.07007205 4.10545245,4.56471182 5.08196542,3.515317 C6.01127378,2.51675793 7.24533718,2.16090778 8.09061095,2.16090778 C10.7415908,2.16090778 13.5868357,7.37597983 15.8734063,11.5662968 C17.7908991,15.0812248 19.0177003,17.2355187 20.026634,17.2355187 C20.4727435,17.2355187 21.0114467,16.7577666 21.0114467,16.1643372 C21.0114467,14.6843948 26.5784784,2.84122478 31.9616196,2.84122478 C32.1763746,2.84122478 34.0606686,2.93174352 34.0606686,6.06229107 M30.9443862,0.692636888 C27.2248184,0.692636888 22.6283343,4.31727666 19.9073256,9.35857349 C17.4459424,4.08384726 12.3787089,-0.000129682997 8.23429971,-0.000129682997 C2.88591354,-0.000129682997 -5.18731988e-05,4.22805476 -5.18731988e-05,8.20621037 C-5.18731988e-05,18.1023199 12.8748761,26.1335879 19.7916484,30.4481412 C21.2409856,31.3522911 22.3855677,32.0663256 23.107902,32.6060663 L23.2067205,32.6799856 L23.3120231,32.6148847 C32.3161729,27.0216571 37.2962594,14.1703314 37.2962594,7.42551873 C37.2962594,3.20978386 34.9215043,0.692636888 30.9443862,0.692636888" id="Fill-1" fill="#F76C6F" mask="url(#mask-2)"></path>
                </g>
                <path d="M132.500723,30.320611 C131.406718,30.320611 130.419052,29.4032334 130.419052,28.309487 C130.419052,27.2154813 131.406718,26.2981037 132.500723,26.2981037 C133.629744,26.2981037 134.617928,27.2154813 134.617928,28.309487 C134.617928,29.4032334 133.629744,30.320611 132.500723,30.320611" id="Fill-4" fill="#3A3A3A"></path>
                <path d="M54.2866772,15.9631729 C52.9512017,15.9631729 51.7599337,16.477755 50.8933919,17.3697147 L50.8933919,22.9930288 C50.8933919,24.913634 51.0736513,28.6513573 54.2145735,28.6513573 C57.1386657,28.6513573 57.4633919,24.05617 57.4633919,22.1363429 C57.4633919,18.4670922 56.561317,15.9631729 54.2866772,15.9631729 M54.1782622,30.3315303 C49.0882046,30.3315303 46.6333055,27.6909251 46.6333055,22.9587925 L46.6333055,7.04798559 C46.6333055,6.56763977 46.9946023,6.22475793 47.463536,6.22475793 L50.0631614,6.22475793 C50.5320951,6.22475793 50.8933919,6.56763977 50.8933919,7.04798559 L50.8933919,15.5523372 C52.2288674,14.2832594 53.7090692,14.0091095 55.1171671,14.0091095 C59.8461873,14.0091095 61.6871671,18.1921643 61.6871671,22.1018473 C61.6871671,26.6622795 59.3769942,30.3315303 54.1782622,30.3315303" id="Fill-6" fill="#3A3A3A"></path>
                <path d="M71.0281816,15.6723977 C68.0371729,15.6723977 67.6766542,20.191072 67.6766542,22.1080461 C67.6766542,24.0587378 68.001121,28.6461441 70.9560778,28.6461441 C73.9110346,28.6461441 74.2718127,24.0587378 74.2718127,22.1080461 C74.2718127,20.191072 73.9473458,15.6723977 71.0281816,15.6723977 M70.9921297,30.3232046 C65.7672017,30.3232046 63.4606599,26.7289107 63.4606599,22.1417637 C63.4606599,17.5893718 65.7672017,13.9953372 70.9921297,13.9953372 C76.1812651,13.9953372 78.4878069,17.5893718 78.4878069,22.1417637 C78.4878069,26.7289107 76.1812651,30.3232046 70.9921297,30.3232046" id="Fill-8" fill="#3A3A3A"></path>
                <path d="M91.0624409,17.3500288 C90.1974553,16.3569164 88.8643141,15.9458213 87.6030173,15.9458213 C84.6841124,15.9458213 84.5035937,20.1911239 84.5035937,22.108098 C84.5035937,24.0245533 84.6841124,28.3038329 87.6030173,28.3038329 C88.8643141,28.3038329 90.1974553,27.4479251 91.0624409,26.4553314 L91.0624409,17.3500288 Z M96.3602507,30.3232565 C94.0895014,30.3232565 91.9634784,29.7072622 91.4587522,27.8929971 C90.0895591,29.3648991 88.3551787,30.3292219 86.589415,30.3292219 C82.0486945,30.3292219 80.2875994,25.8043228 80.2875994,22.0738617 C80.2875994,18.3768588 82.0891556,13.995389 86.6298761,13.995389 C88.2516916,13.995389 89.7292997,14.3032565 91.026389,15.5357637 L91.026389,7.01221902 C91.026389,6.56714697 91.4227003,6.22478386 91.8913746,6.22478386 L94.4863314,6.22478386 C94.954487,6.22478386 95.3147464,6.56714697 95.3147464,7.01221902 L95.3147464,26.147464 C95.3147464,28.1666282 96.4684063,28.3463689 97.9452363,28.3463689 C99.1346888,28.3463689 100.540193,27.9355331 101.657282,27.5246974 C102.233594,27.5589337 102.449905,28.2353602 102.449905,28.577464 C102.449905,28.7481268 102.414372,28.9198271 102.306216,29.0570317 C100.792297,29.8436888 98.59417,30.3232565 96.3602507,30.3232565 Z" id="Fill-10" fill="#3A3A3A"></path>
                <path d="M150.3083,26.147464 C150.3083,28.1666282 151.280403,28.3126513 152.520951,28.3305476 C154.430144,28.3580403 156.593256,26.703804 156.752507,26.3217579 C156.827205,26.1422767 157.25049,25.9972911 157.441643,26.0325648 C158.148156,26.1625072 159.18121,27.0853314 159.456657,27.0853314 C159.520461,27.0853314 155.702594,30.3232565 151.353026,30.3232565 C146.52415,30.3232565 146.055735,28.0636599 146.055735,24.3666571 L146.055735,18.8556484 C146.055735,16.7677522 145.371527,16.0145533 144.434179,16.0145533 C143.465706,16.0145533 142.198703,16.7713833 141.36562,17.7401153 C141.297666,17.8187032 141.262651,17.9203746 141.262651,18.024121 L141.262651,29.4797983 C141.262651,29.9248703 140.866859,30.3447839 140.434496,30.3447839 L137.839539,30.3447839 C137.406916,30.3447839 137.010865,29.9248703 137.010865,29.4797983 L137.010865,14.8178386 C137.010865,14.3727666 137.406916,13.9917579 137.839539,13.9917579 L140.434496,13.9917579 C140.866859,13.9917579 141.262651,14.3727666 141.262651,14.8178386 L141.262651,16.0145533 C142.632622,14.6798559 143.89366,13.995389 145.839683,13.995389 C150.019885,13.995389 150.3083,16.7677522 150.3083,20.019683 L150.3083,26.147464 Z" id="Fill-12" fill="#3A3A3A"></path>
                <path d="M173.228524,16.0488934 C172.904317,19.7116599 172.796161,22.3818329 172.796161,26.1475677 C172.796161,28.166732 173.948784,28.3464726 175.426911,28.3464726 C176.579533,28.3464726 177.985297,27.9356369 179.102127,27.5245418 C179.678438,27.5587781 179.894749,28.2694409 179.894749,28.611804 C179.894749,29.7413429 175.714548,30.3231009 173.840628,30.3231009 C169.480945,30.3231009 168.651752,28.611804 168.651752,23.4771354 C168.651752,21.0463573 168.903856,18.5476254 169.048582,16.0488934 L167.462559,16.0488934 C167.066507,15.8782305 166.87328,15.3939942 166.87328,14.9839366 C166.87328,14.5731009 167.1023,14.1625245 167.462559,13.9908242 L169.300427,13.9908242 L170.66962,10.2639942 C170.814086,9.81892219 171.101983,9.44232277 171.534605,9.44232277 L172.975643,9.44232277 C173.408265,9.44232277 173.805095,9.68249568 173.805095,10.0925533 C173.661147,11.5986916 173.516421,12.6561268 173.372732,13.9908242 L176.435585,13.9908242 C176.795844,14.1625245 177.107602,14.5731009 177.107602,14.9839366 C177.107602,15.3939942 176.868207,15.8782305 176.435585,16.0488934 L173.228524,16.0488934 Z" id="Fill-14" fill="#3A3A3A"></path>
                <path d="M109.567841,26.4348156 C108.702856,27.4276686 107.395911,28.3175533 106.134873,28.3175533 C103.215968,28.3175533 103.008994,24.0048156 103.008994,22.0875821 C103.008994,20.1708674 103.333461,15.6521931 106.288418,15.6521931 C109.387841,15.6521931 109.567841,19.349196 109.567841,21.26617 L109.567841,26.4348156 Z M119.147265,19.026804 C118.813202,24.4192824 116.538303,28.3484179 114.637669,28.3484179 C113.822222,28.3484179 113.820147,27.9508098 113.820147,26.1269481 L113.820147,22.5391383 C113.844009,20.0588213 113.786689,15.4166888 113.786689,15.4166888 C113.757899,14.6723084 113.916372,13.983951 113.072135,13.981098 L110.195248,13.9715014 C109.779484,13.9702046 109.578994,14.2407233 109.508447,14.5550749 C109.506631,14.5620778 109.499628,14.5662277 109.493144,14.5633746 C108.586141,14.1859971 107.537006,13.962683 106.324729,13.9751326 C101.099801,14.0293401 98.793,17.5691671 98.793,22.1220778 C98.793,25.8527983 100.594556,30.303 105.135277,30.303 C106.895075,30.303 108.583548,29.3508674 109.950666,27.8872651 C109.956631,27.8805216 109.965968,27.883634 109.969859,27.8921931 C110.88179,30.0306657 112.308303,30.348389 113.880579,30.3457954 C119.433346,30.3369769 121.279772,21.3691383 121.279772,21.3691383 C121.279772,21.3691383 119.148043,19.013317 119.147265,19.026804 Z" id="Fill-16" fill="#3A3A3A"></path>
                <path d="M123.085012,18.6687752 C123.087346,18.6685159 123.095127,18.6705908 123.096683,18.6698127 C122.163744,17.9000144 122.16504,16.0463256 122.266971,14.9108213 C122.312101,14.4076513 121.919161,13.9742507 121.414176,13.976585 C120.763686,13.9796974 120.565271,14.0287176 119.501352,14.0287176 C118.933859,14.0287176 118.558037,14.5790922 118.452216,14.9855187 C118.158354,16.1119452 118.179104,17.1603026 118.251726,17.6577666 C118.499939,19.3511671 119.395271,20.7418876 121.173225,21.9344524 C122.102014,22.5595245 125.475069,24.4526369 125.733138,26.2139914 C125.96138,27.7720029 124.797605,28.7814553 123.611784,28.8771614 C122.715934,28.9497839 121.891928,28.1281124 121.511957,27.5411671 C121.340256,27.2763545 120.982591,27.2086599 120.736971,27.4070749 C120.711294,27.4280836 120.685357,27.4493516 120.65968,27.4706196 C120.361669,27.7170173 120.26285,28.1361527 120.435847,28.4818876 C120.802591,29.2140778 121.709334,30.3340202 123.824205,30.3340202 C126.490487,30.3340202 129.188412,27.9221758 128.707288,24.6367867 C128.368037,22.3214265 125.505156,20.3764409 123.085012,18.6687752" id="Fill-18" fill="#3A3A3A"></path>
                <path d="M158.516326,25.2599395 C160.860735,22.9155303 161.964078,20.1854438 161.964078,18.1971441 C161.964078,16.9283256 161.426671,15.8340605 159.99549,15.8340605 C158.877104,15.8340605 157.397939,17.9248098 157.397939,20.5986138 C157.397939,22.1402853 157.79451,23.8204582 158.516326,25.2599395 M153.680965,21.8318991 C153.680965,17.2393055 156.603501,13.9829654 159.743127,13.9829654 C163.242493,13.9829654 164.580562,16.5984121 164.580562,18.0656455 C164.580562,21.0470576 163.815951,23.2903141 159.634712,26.871121 C160.717565,28.207634 163.192176,28.3482104 164.563703,28.3482104 C166.043127,28.3482104 167.523069,27.8336282 168.821196,27.2513516 C169.32696,27.2513516 169.615893,27.5939741 169.615893,28.0053285 C169.615893,28.7945793 165.255692,30.3326196 162.19647,30.3326196 C160.357046,30.3326196 158.479755,29.9212651 157.000591,28.8931383 C154.799611,27.3506888 153.680965,24.6086715 153.680965,21.8318991" id="Fill-20" fill="#3A3A3A"></path>
            </g>
        </g>
    </g>
</svg>

<svg width="180" height="33" xmlns="http://www.w3.org/2000/svg" xmlns:xlink="http://www.w3.org/1999/xlink"><defs><path id="a" d="M0 32.68V0h37.296v32.68z"/></defs><g fill="none" fill-rule="evenodd"><mask id="b" fill="#fff"><use xlink:href="#a"/></mask><path d="M34.06 6.062c0 6.622-7.208 19.369-11.062 24.333-1.593-2.627-4.723-5.248-8.031-8.018-5.29-4.43-10.76-9.01-11.148-14.388-.139-1.919.286-3.424 1.263-4.474.93-.998 2.163-1.354 3.009-1.354 2.65 0 5.496 5.215 7.782 9.405 1.918 3.515 3.145 5.67 4.154 5.67.446 0 .984-.478.984-1.072 0-1.48 5.567-13.323 10.95-13.323.215 0 2.1.09 2.1 3.221M30.944.692c-3.72 0-8.316 3.625-11.037 8.667-2.461-5.275-7.528-9.36-11.673-9.36C2.886 0 0 4.23 0 8.207c0 9.896 12.875 17.928 19.792 22.242 1.449.904 2.594 1.618 3.316 2.158l.099.074.105-.065c9.004-5.593 13.984-18.445 13.984-25.19 0-4.215-2.374-6.732-6.352-6.732" fill="#F76C6F" mask="url(#b)"/><path d="M132.5 30.32c-1.093 0-2.08-.917-2.08-2.01 0-1.095.987-2.012 2.08-2.012 1.13 0 2.118.917 2.118 2.011s-.988 2.012-2.117 2.012M54.287 15.963c-1.336 0-2.527.515-3.394 1.407v5.623c0 1.92.18 5.658 3.322 5.658 2.924 0 3.248-4.595 3.248-6.515 0-3.669-.902-6.173-3.176-6.173m-.109 14.369c-5.09 0-7.545-2.641-7.545-7.373V7.048c0-.48.362-.823.83-.823h2.6c.47 0 .83.343.83.823v8.504c1.336-1.269 2.816-1.543 4.224-1.543 4.73 0 6.57 4.183 6.57 8.093 0 4.56-2.31 8.23-7.509 8.23M71.028 15.672c-2.99 0-3.351 4.52-3.351 6.436 0 1.95.324 6.538 3.28 6.538 2.954 0 3.315-4.587 3.315-6.538 0-1.917-.325-6.436-3.244-6.436m-.036 14.651c-5.225 0-7.531-3.594-7.531-8.181 0-4.553 2.306-8.147 7.531-8.147 5.19 0 7.496 3.594 7.496 8.147 0 4.587-2.307 8.181-7.496 8.181M91.062 17.35c-.865-.993-2.198-1.404-3.459-1.404-2.919 0-3.1 4.245-3.1 6.162 0 1.917.181 6.196 3.1 6.196 1.261 0 2.594-.856 3.46-1.849V17.35Zm5.298 12.973c-2.27 0-4.397-.616-4.901-2.43-1.37 1.472-3.104 2.436-4.87 2.436-4.54 0-6.301-4.525-6.301-8.255 0-3.697 1.801-8.079 6.342-8.079 1.622 0 3.1.308 4.396 1.54V7.013c0-.445.397-.787.865-.787h2.595c.468 0 .829.342.829.787v19.135c0 2.02 1.153 2.2 2.63 2.2 1.19 0 2.595-.411 3.712-.822.577.034.793.71.793 1.052a.76.76 0 0 1-.144.48c-1.514.787-3.712 1.266-5.946 1.266ZM150.308 26.147c0 2.02.972 2.166 2.213 2.184 1.91.027 4.072-1.627 4.232-2.01.074-.179.497-.324.689-.288.706.13 1.74 1.052 2.015 1.052.063 0-3.754 3.238-8.104 3.238-4.829 0-5.297-2.26-5.297-5.956v-5.511c0-2.088-.684-2.841-1.622-2.841-.968 0-2.235.756-3.068 1.725a.433.433 0 0 0-.103.284V29.48c0 .445-.396.865-.829.865h-2.594c-.433 0-.83-.42-.83-.865V14.818c0-.445.397-.826.83-.826h2.594c.433 0 .829.38.829.826v1.197c1.37-1.335 2.63-2.02 4.577-2.02 4.18 0 4.468 2.773 4.468 6.025v6.127ZM173.229 16.049c-.325 3.663-.433 6.333-.433 10.099 0 2.019 1.153 2.198 2.63 2.198 1.154 0 2.56-.41 3.676-.821.576.034.793.744.793 1.087 0 1.13-4.18 1.711-6.054 1.711-4.36 0-5.19-1.711-5.19-6.846 0-2.43.253-4.93.398-7.428h-1.586c-.396-.17-.59-.655-.59-1.065 0-.41.23-.821.59-.993h1.837l1.37-3.727c.144-.445.432-.822.865-.822h1.44c.433 0 .83.24.83.65-.144 1.507-.289 2.564-.432 3.899h3.063c.36.172.672.582.672.993 0 .41-.24.894-.672 1.065h-3.207Z" fill="#3A3A3A"/><path d="M109.568 26.435c-.865.993-2.172 1.883-3.433 1.883-2.919 0-3.126-4.313-3.126-6.23 0-1.917.324-6.436 3.28-6.436 3.099 0 3.279 3.697 3.279 5.614v5.169Zm9.58-7.408c-.335 5.392-2.61 9.321-4.51 9.321-.816 0-.818-.397-.818-2.221v-3.588c.024-2.48-.033-7.122-.033-7.122-.03-.745.13-1.433-.715-1.436l-2.877-.01c-.416 0-.616.27-.687.584-.001.007-.008.011-.015.008-.907-.377-1.956-.6-3.168-.588-5.225.054-7.532 3.594-7.532 8.147 0 3.73 1.802 8.181 6.342 8.181 1.76 0 3.449-.952 4.816-2.416.006-.006.015-.003.019.005.912 2.139 2.338 2.456 3.91 2.454 5.553-.009 7.4-8.977 7.4-8.977s-2.132-2.356-2.133-2.342Z" fill="#3A3A3A"/><path d="M123.085 18.669c.002 0 .01.002.012 0-.933-.769-.932-2.623-.83-3.758a.854.854 0 0 0-.853-.934c-.65.003-.849.052-1.913.052-.567 0-.943.55-1.049.957-.294 1.126-.273 2.174-.2 2.672.248 1.693 1.143 3.084 2.921 4.276.929.626 4.302 2.519 4.56 4.28.228 1.558-.935 2.567-2.121 2.663-.896.073-1.72-.749-2.1-1.336a.528.528 0 0 0-.775-.134l-.077.064a.833.833 0 0 0-.224 1.01c.367.733 1.273 1.853 3.388 1.853 2.666 0 5.364-2.412 4.883-5.697-.339-2.316-3.202-4.26-5.622-5.968M158.516 25.26c2.345-2.344 3.448-5.075 3.448-7.063 0-1.269-.537-2.363-1.969-2.363-1.118 0-2.597 2.09-2.597 4.765 0 1.541.397 3.221 1.118 4.66m-4.835-3.427c0-4.593 2.923-7.849 6.062-7.849 3.5 0 4.838 2.615 4.838 4.083 0 2.981-.765 5.224-4.946 8.805 1.083 1.337 3.557 1.477 4.929 1.477 1.48 0 2.96-.514 4.257-1.097.506 0 .795.343.795.754 0 .79-4.36 2.328-7.42 2.328-1.839 0-3.716-.412-5.195-1.44-2.201-1.542-3.32-4.284-3.32-7.061" fill="#3A3A3A"/></g></svg>
